src/img/icons/notifications-circle.svg

<svg width="32" height="32" viewBox="0 0 32 32" fill="none" xmlns="http://www.w3.org/2000/svg">
<path d="M16 25.1254C16.548 25.1254 17.0179 24.9341 17.4099 24.5514C17.8019 24.169 18.0121 23.6991 18.0403 23.1418H13.9597C13.9879 23.6991 14.1981 24.169 14.5901 24.5514C14.9821 24.9341 15.452 25.1254 16 25.1254ZM13.0526 18.8906V14.3561C13.0526 13.5456 13.3412 12.8517 13.9184 12.2745C14.4956 11.6973 15.1895 11.4087 16 11.4087C16.8105 11.4087 17.5044 11.6973 18.0816 12.2745C18.6588 12.8517 18.9474 13.5456 18.9474 14.3561V18.8906H13.0526ZM16.0026 30C14.0662 30 12.246 29.6326 10.5422 28.8977C8.83839 28.1628 7.35635 27.1655 6.09611 25.9057C4.83586 24.646 3.83805 23.1646 3.10268 21.4615C2.36756 19.7584 2 17.9388 2 16.0026C2 14.0662 2.36744 12.246 3.10232 10.5422C3.83719 8.83839 4.83451 7.35635 6.09426 6.09611C7.35402 4.83586 8.83544 3.83805 10.5385 3.10268C12.2416 2.36756 14.0612 2 15.9974 2C17.9338 2 19.754 2.36744 21.4578 3.10232C23.1616 3.83719 24.6437 4.83451 25.9039 6.09426C27.1641 7.35402 28.1619 8.83544 28.8973 10.5385C29.6324 12.2416 30 14.0612 30 15.9974C30 17.9338 29.6326 19.754 28.8977 21.4578C28.1628 23.1616 27.1655 24.6437 25.9057 25.9039C24.646 27.1641 23.1646 28.1619 21.4615 28.8973C19.7584 29.6324 17.9388 30 16.0026 30ZM16 27.7895C19.2912 27.7895 22.0789 26.6474 24.3632 24.3632C26.6474 22.0789 27.7895 19.2912 27.7895 16C27.7895 12.7088 26.6474 9.92105 24.3632 7.63684C22.0789 5.35263 19.2912 4.21053 16 4.21053C12.7088 4.21053 9.92105 5.35263 7.63684 7.63684C5.35263 9.92105 4.21053 12.7088 4.21053 16C4.21053 19.2912 5.35263 22.0789 7.63684 24.3632C9.92105 26.6474 12.7088 27.7895 16 27.7895ZM10.3886 21.2714H21.6114C21.9486 21.2714 22.2314 21.1573 22.4595 20.9291C22.6875 20.7009 22.8014 20.4182 22.8014 20.081C22.8014 19.7438 22.6875 19.4611 22.4595 19.2329C22.2314 19.0047 21.9486 18.8906 21.6114 18.8906H21.3277V14.9739C21.3277 13.5985 20.9693 12.345 20.2523 11.2135C19.5354 10.0817 18.5336 9.36277 17.2471 9.05674V8.09332C17.2471 7.73177 17.1295 7.42881 16.8942 7.18442C16.6589 6.94003 16.3608 6.81784 16 6.81784C15.6392 6.81784 15.3411 6.94003 15.1058 7.18442C14.8705 7.42881 14.7529 7.73177 14.7529 8.09332V9.05674C13.4664 9.36277 12.4646 10.0769 11.7477 11.1991C11.0307 12.3213 10.6723 13.5701 10.6723 14.9456V18.8906H10.3886C10.0514 18.8906 9.76865 19.0047 9.54047 19.2329C9.31254 19.4611 9.19858 19.7438 9.19858 20.081C9.19858 20.4182 9.31254 20.7009 9.54047 20.9291C9.76865 21.1573 10.0514 21.2714 10.3886 21.2714Z" fill="#131212"/>
</svg>

<svg xmlns="http://www.w3.org/2000/svg" viewBox="0 0 32 32">
  <path fill="currentColor" d="M16 25.125c.548 0 1.018-.19 1.41-.574.392-.382.602-.852.63-1.41h-4.08c.028.558.238 1.028.63 1.41.392.383.862.574 1.41.574Zm-2.947-6.234v-4.535c0-.81.288-1.504.865-2.082A2.838 2.838 0 0 1 16 11.41c.81 0 1.504.288 2.082.865.577.578.865 1.272.865 2.082v4.535h-5.894ZM16.003 30c-1.937 0-3.757-.367-5.46-1.102a14.14 14.14 0 0 1-4.447-2.992 14.138 14.138 0 0 1-2.993-4.444C2.368 19.758 2 17.939 2 16.002c0-1.936.367-3.756 1.102-5.46a14.14 14.14 0 0 1 2.992-4.446 14.14 14.14 0 0 1 4.445-2.993C12.242 2.368 14.06 2 15.997 2c1.937 0 3.757.367 5.46 1.102a14.14 14.14 0 0 1 4.447 2.992 14.14 14.14 0 0 1 2.993 4.445C29.632 12.242 30 14.06 30 15.997c0 1.937-.367 3.757-1.102 5.46a14.14 14.14 0 0 1-2.992 4.447 14.14 14.14 0 0 1-4.444 2.993c-1.704.735-3.523 1.103-5.46 1.103ZM16 27.79c3.291 0 6.079-1.143 8.363-3.427S27.79 19.291 27.79 16c0-3.291-1.143-6.079-3.427-8.363S19.291 4.21 16 4.21c-3.291 0-6.079 1.142-8.363 3.426C5.353 9.92 4.21 12.709 4.21 16c0 3.291 1.142 6.079 3.426 8.363C9.92 26.647 12.709 27.79 16 27.79Zm-5.611-6.519H21.61c.338 0 .62-.114.848-.342.229-.228.342-.51.342-.848 0-.337-.113-.62-.341-.848a1.152 1.152 0 0 0-.849-.342h-.283v-3.917c0-1.376-.359-2.629-1.076-3.76-.717-1.132-1.718-1.851-3.005-2.157v-.964a1.26 1.26 0 0 0-.353-.909A1.188 1.188 0 0 0 16 6.818c-.36 0-.659.122-.894.366a1.26 1.26 0 0 0-.353.91v.963c-1.287.306-2.288 1.02-3.005 2.142-.717 1.122-1.076 2.371-1.076 3.747v3.945h-.283c-.338 0-.62.114-.849.342-.227.228-.341.51-.341.848 0 .337.114.62.341.848.229.228.511.342.849.342Z"/>
</svg>
